static/img/kroki/d0f4980d36c6107854e8df2afb5f731e.svg

<?xml version="1.0" encoding="us-ascii" standalone="no"?><svg xmlns="http://www.w3.org/2000/svg" xmlns:xlink="http://www.w3.org/1999/xlink" contentStyleType="text/css" height="374px" preserveAspectRatio="none" style="width:307px;height:374px;" version="1.1" viewBox="0 0 307 374" width="307px" zoomAndPan="magnify"><defs/><g><!--class aws_ec2_keypair--><g id="elem_aws_ec2_keypair"><rect codeLine="23" fill="#3D176E" height="39.7891" id="aws_ec2_keypair" rx="2.5" ry="2.5" style="stroke:#000D19;stroke-width:0.5;" width="184" x="73.5" y="328.58"/><ellipse cx="88.5" cy="348.4745" fill="#ADD1B2" rx="11" ry="11" style="stroke:#181818;stroke-width:1.0;"/><path d="M91.4688,354.1152 Q90.8906,354.412 90.25,354.5527 Q89.6094,354.7089 88.9063,354.7089 Q86.4063,354.7089 85.0781,353.0683 Q83.7656,351.412 83.7656,348.287 Q83.7656,345.162 85.0781,343.5058 Q86.4063,341.8495 88.9063,341.8495 Q89.6094,341.8495 90.25,342.0058 Q90.9063,342.162 91.4688,342.4589 L91.4688,345.1777 Q90.8438,344.5995 90.25,344.3339 Q89.6563,344.0527 89.0313,344.0527 Q87.6875,344.0527 87,345.1308 Q86.3125,346.1933 86.3125,348.287 Q86.3125,350.3808 87,351.4589 Q87.6875,352.5214 89.0313,352.5214 Q89.6563,352.5214 90.25,352.2558 Q90.8438,351.9745 91.4688,351.3964 L91.4688,354.1152 Z " fill="#000000"/><text fill="#D9B8FF" font-family="Helvetica" font-size="17" lengthAdjust="spacing" textLength="142" x="107.5" y="354.3598">aws_ec2_keypair</text></g><!--class aws_resource--><g id="elem_aws_resource"><rect codeLine="26" fill="#3D176E" height="39.7891" id="aws_resource" rx="2.5" ry="2.5" style="stroke:#000D19;stroke-width:0.5;" width="155" x="7" y="167.79"/><ellipse cx="22" cy="187.6845" fill="#ADD1B2" rx="11" ry="11" style="stroke:#181818;stroke-width:1.0;"/><path d="M24.9688,193.3252 Q24.3906,193.622 23.75,193.7627 Q23.1094,193.9189 22.4063,193.9189 Q19.9063,193.9189 18.5781,192.2783 Q17.2656,190.622 17.2656,187.497 Q17.2656,184.372 18.5781,182.7158 Q19.9063,181.0595 22.4063,181.0595 Q23.1094,181.0595 23.75,181.2158 Q24.4063,181.372 24.9688,181.6689 L24.9688,184.3877 Q24.3438,183.8095 23.75,183.5439 Q23.1563,183.2627 22.5313,183.2627 Q21.1875,183.2627 20.5,184.3408 Q19.8125,185.4033 19.8125,187.497 Q19.8125,189.5908 20.5,190.6689 Q21.1875,191.7314 22.5313,191.7314 Q23.1563,191.7314 23.75,191.4658 Q24.3438,191.1845 24.9688,190.6064 L24.9688,193.3252 Z " fill="#000000"/><text fill="#D9B8FF" font-family="Helvetica" font-size="17" lengthAdjust="spacing" textLength="113" x="41" y="193.5698">aws_resource</text></g><!--class keypair--><g id="elem_keypair"><rect codeLine="29" fill="#3D176E" height="39.7891" id="keypair" rx="2.5" ry="2.5" style="stroke:#000D19;stroke-width:0.5;" width="104" x="196.5" y="167.79"/><ellipse cx="211.5" cy="187.6845" fill="#ADD1B2" rx="11" ry="11" style="stroke:#181818;stroke-width:1.0;"/><path d="M214.4688,193.3252 Q213.8906,193.622 213.25,193.7627 Q212.6094,193.9189 211.9063,193.9189 Q209.4063,193.9189 208.0781,192.2783 Q206.7656,190.622 206.7656,187.497 Q206.7656,184.372 208.0781,182.7158 Q209.4063,181.0595 211.9063,181.0595 Q212.6094,181.0595 213.25,181.2158 Q213.9063,181.372 214.4688,181.6689 L214.4688,184.3877 Q213.8438,183.8095 213.25,183.5439 Q212.6563,183.2627 212.0313,183.2627 Q210.6875,183.2627 210,184.3408 Q209.3125,185.4033 209.3125,187.497 Q209.3125,189.5908 210,190.6689 Q210.6875,191.7314 212.0313,191.7314 Q212.6563,191.7314 213.25,191.4658 Q213.8438,191.1845 214.4688,190.6064 L214.4688,193.3252 Z " fill="#000000"/><text fill="#D9B8FF" font-family="Helvetica" font-size="17" lengthAdjust="spacing" textLength="62" x="230.5" y="193.5698">keypair</text></g><!--class resource--><g id="elem_resource"><rect codeLine="32" fill="#3D176E" height="39.7891" id="resource" rx="2.5" ry="2.5" style="stroke:#000D19;stroke-width:0.5;" width="113" x="109" y="7"/><ellipse cx="124" cy="26.8945" fill="#ADD1B2" rx="11" ry="11" style="stroke:#181818;stroke-width:1.0;"/><path d="M126.9688,32.5352 Q126.3906,32.832 125.75,32.9727 Q125.1094,33.1289 124.4063,33.1289 Q121.9063,33.1289 120.5781,31.4883 Q119.2656,29.832 119.2656,26.707 Q119.2656,23.582 120.5781,21.9258 Q121.9063,20.2695 124.4063,20.2695 Q125.1094,20.2695 125.75,20.4258 Q126.4063,20.582 126.9688,20.8789 L126.9688,23.5977 Q126.3438,23.0195 125.75,22.7539 Q125.1563,22.4727 124.5313,22.4727 Q123.1875,22.4727 122.5,23.5508 Q121.8125,24.6133 121.8125,26.707 Q121.8125,28.8008 122.5,29.8789 Q123.1875,30.9414 124.5313,30.9414 Q125.1563,30.9414 125.75,30.6758 Q126.3438,30.3945 126.9688,29.8164 L126.9688,32.5352 Z " fill="#000000"/><text fill="#D9B8FF" font-family="Helvetica" font-size="17" lengthAdjust="spacing" textLength="71" x="143" y="32.7798">resource</text></g><!--reverse link aws_resource to aws_ec2_keypair--><g id="link_aws_resource_aws_ec2_keypair"><path codeLine="35" d="M102.4499,223.874 C118.0199,254.394 140.1,297.69 155.69,328.25 " fill="none" id="aws_resource-backto-aws_ec2_keypair" style="stroke:#FFAF37;stroke-width:2.0;"/><polygon fill="none" points="94.27,207.84,97.1052,226.6006,107.7945,221.1474,94.27,207.84" style="stroke:#FFAF37;stroke-width:2.0;"/></g><!--reverse link keypair to aws_ec2_keypair--><g id="link_keypair_aws_ec2_keypair"><path codeLine="36" d="M230.1529,223.7928 C214.2029,254.3128 191.52,297.69 175.55,328.25 " fill="none" id="keypair-backto-aws_ec2_keypair" style="stroke:#FFAF37;stroke-width:2.0;"/><polygon fill="none" points="238.49,207.84,224.8353,221.0138,235.4705,226.5719,238.49,207.84" style="stroke:#FFAF37;stroke-width:2.0;"/></g><!--reverse link resource to aws_resource--><g id="link_resource_aws_resource"><path codeLine="37" d="M147.5501,63.084 C131.9801,93.604 109.9,136.9 94.31,167.46 " fill="none" id="resource-backto-aws_resource" style="stroke:#FFAF37;stroke-width:2.0;"/><polygon fill="none" points="155.73,47.05,142.2055,60.3574,152.8948,65.8106,155.73,47.05" style="stroke:#FFAF37;stroke-width:2.0;"/></g><!--reverse link resource to keypair--><g id="link_resource_keypair"><path codeLine="38" d="M183.8471,63.0028 C199.7971,93.5228 222.48,136.9 238.45,167.46 " fill="none" id="resource-backto-keypair" style="stroke:#FFAF37;stroke-width:2.0;"/><polygon fill="none" points="175.51,47.05,178.5295,65.7819,189.1647,60.2238,175.51,47.05" style="stroke:#FFAF37;stroke-width:2.0;"/></g><!--SRC=[XP3DReCm48JlF8Mbd94WKKiYzP8YLUqbgfhUemMlWmNOQ6sAwC-xjsbAvHYIN6U-tPdTGd9aM3UsPpNM6P89J2bL0mGrMnFfBjML9ZOJ0iGYySq7hUnLO0CriaUitj3A77pYjP1vgT0ODdUiUyZBFUbMyUDwIw3CZuNAEbHQWJ5hQqbchKMd35zbIo5yqbywM_0ukSKHfeaZ_I5H5F5uvIDNeoxU_KzivJkos7tQHbiSrHn5_58NMnu8f-JeqC4_s_4PE9TgpsuSxUNOYHJIYRujWElkG0keZ1jZB19gspUOZgx2rPABP19-EWS7-U5r33gpmto-Ax5lG1Bx288lno8qkgKSNNq2FSLE1ky-mp3qOu9XnxGxCJn8lZUCV0C0]--></g></svg>

<svg xmlns="http://www.w3.org/2000/svg" width="307" height="374" viewBox="0 0 307 374"><rect width="184" height="39.789" x="73.5" y="328.58" fill="#3D176E" rx="2.5" ry="2.5" style="stroke:#000d19;stroke-width:.5"/><circle cx="88.5" cy="348.474" r="11" fill="#ADD1B2" style="stroke:#181818;stroke-width:1"/><path d="M91.469 354.115q-.578.297-1.219.438-.64.156-1.344.156-2.5 0-3.828-1.64-1.312-1.657-1.312-4.782t1.312-4.781q1.328-1.656 3.828-1.656.703 0 1.344.156.656.156 1.219.453v2.719q-.625-.579-1.219-.844-.594-.281-1.219-.281-1.344 0-2.031 1.078-.687 1.062-.687 3.156t.687 3.172q.688 1.062 2.031 1.062.625 0 1.219-.265.594-.281 1.219-.86z"/><text x="107.5" y="354.36" fill="#D9B8FF" font-family="Helvetica" font-size="17" textLength="142">aws_ec2_keypair</text><rect width="155" height="39.789" x="7" y="167.79" fill="#3D176E" rx="2.5" ry="2.5" style="stroke:#000d19;stroke-width:.5"/><circle cx="22" cy="187.685" r="11" fill="#ADD1B2" style="stroke:#181818;stroke-width:1"/><path d="M24.969 193.325q-.578.297-1.219.438-.64.156-1.344.156-2.5 0-3.828-1.64-1.312-1.657-1.312-4.782t1.312-4.781q1.328-1.656 3.828-1.656.703 0 1.344.156.656.156 1.219.453v2.719q-.625-.578-1.219-.844-.594-.281-1.219-.281-1.343 0-2.031 1.078-.687 1.062-.687 3.156t.687 3.172q.688 1.062 2.031 1.062.625 0 1.219-.265.594-.281 1.219-.86z"/><text x="41" y="193.57" fill="#D9B8FF" font-family="Helvetica" font-size="17" textLength="113">aws_resource</text><rect width="104" height="39.789" x="196.5" y="167.79" fill="#3D176E" rx="2.5" ry="2.5" style="stroke:#000d19;stroke-width:.5"/><circle cx="211.5" cy="187.685" r="11" fill="#ADD1B2" style="stroke:#181818;stroke-width:1"/><path d="M214.469 193.325q-.578.297-1.219.438-.64.156-1.344.156-2.5 0-3.828-1.64-1.312-1.657-1.312-4.782t1.312-4.781q1.328-1.656 3.828-1.656.703 0 1.344.156.656.156 1.219.453v2.719q-.625-.578-1.219-.844-.594-.281-1.219-.281-1.344 0-2.031 1.078-.687 1.062-.687 3.156t.687 3.172q.688 1.062 2.031 1.062.625 0 1.219-.265.594-.281 1.219-.86z"/><text x="230.5" y="193.57" fill="#D9B8FF" font-family="Helvetica" font-size="17" textLength="62">keypair</text><rect width="113" height="39.789" x="109" y="7" fill="#3D176E" rx="2.5" ry="2.5" style="stroke:#000d19;stroke-width:.5"/><circle cx="124" cy="26.895" r="11" fill="#ADD1B2" style="stroke:#181818;stroke-width:1"/><path d="M126.969 32.535q-.578.297-1.219.438-.64.156-1.344.156-2.5 0-3.828-1.64-1.312-1.657-1.312-4.782t1.312-4.781q1.328-1.656 3.828-1.656.703 0 1.344.156.656.156 1.219.453v2.719q-.625-.578-1.219-.844-.594-.281-1.219-.281-1.344 0-2.031 1.078-.687 1.062-.687 3.156t.687 3.172q.688 1.062 2.031 1.062.625 0 1.219-.265.594-.281 1.219-.86z"/><text x="143" y="32.78" fill="#D9B8FF" font-family="Helvetica" font-size="17" textLength="71">resource</text><path fill="none" d="M102.45 223.874c15.57 30.52 37.65 73.816 53.24 104.376M94.27 207.84l2.835 18.76 10.69-5.453z" style="stroke:#ffaf37;stroke-width:2"/><g fill="none"><path d="M230.153 223.793c-15.95 30.52-38.633 73.897-54.603 104.457" style="stroke:#ffaf37;stroke-width:2"/><path d="m238.49 207.84-13.655 13.174 10.635 5.558z" style="stroke:#ffaf37;stroke-width:2"/></g><path fill="none" d="M147.55 63.084C131.98 93.604 109.9 136.9 94.31 167.46m61.42-120.41-13.524 13.307 10.689 5.454z" style="stroke:#ffaf37;stroke-width:2"/><g fill="none"><path d="M183.847 63.003c15.95 30.52 38.633 73.897 54.603 104.457" style="stroke:#ffaf37;stroke-width:2"/><path d="m175.51 47.05 3.02 18.732 10.635-5.558z" style="stroke:#ffaf37;stroke-width:2"/></g></svg>
